X:1
T:[ID 1-1]
T:[ID 1-1]
T:Bezeichnung standardisiert: Polnischer Tanz Polnischer Tanz
T:Urheber unbekannt Datum in der hier transkribierten schriftlichen Quelle: vermutlich vor 1767
C:Urheber unbekannt
C:Datum in der hier transkribierten schriftlichen Quelle: vermutlich vor 1767
L:1/8
M:3/4
K:D
V:1 treble 
V:1
 f(e/f/) g2 f2 | f(e/f/) g2 f2 | f(e/d/)cB cd | e2 e4 | B(A/B/) _c2 B2 | _cB/A/ B2 ^G2 | A2 A4 :: %7
 c(B/c/) AA EE | e(d/e/) cc AA | c(B/c/) AA EE | ed/e/ c2 B2 | f(e/f/) dd AA | f(e/f/) dd AA | %13
 f(e/d/) e2 c2 | d2 d4 :| %15

